X:198
T:Russian Dance THO3.198, The
O:England;London
M:2/4
L:1/8
Z:vmp. Peter Dunk 2011.from a transcription by Fynn Titford-Mock 2006-9
B:Thompson's Compleat Collection of 200 Favourite Country Dances Vol. III.1765-72
Q:1/4=140
K:A
e3 f/d/|cccB|AB/G/|AB/G/|ABcd|e3 f/d/|cccB|AB/G/|A2A,2:|
|:c3 d/B/|AAAB|cagf|e2d2|c3 d/B/|AAAB|cabg|a2A2:|

